16x16/panel/smplayer-panel.svg

<svg xmlns="http://www.w3.org/2000/svg" width="16" height="16" version="1">
 <defs>
  <style id="current-color-scheme" type="text/css">
   .ColorScheme-Text { color:#323a41; } .ColorScheme-Highlight { color:#4285f4; } .ColorScheme-NeutralText { color:#ff9800; } .ColorScheme-PositiveText { color:#4caf50; } .ColorScheme-NegativeText { color:#f44336; }
  </style>
 </defs>
 <path style="fill:currentColor" class="ColorScheme-Text" d="M 8 1 C 4.122 1 1 4.122 1 8 C 1 11.878 4.122 15 8 15 C 11.878 15 15 11.878 15 8 C 15 4.122 11.878 1 8 1 z M 8 2 A 2 2 0 0 1 10 4 A 2 2 0 0 1 8 6 A 2 2 0 0 1 6 4 A 2 2 0 0 1 8 2 z M 4 6 A 2 2 0 0 1 6 8 A 2 2 0 0 1 4 10 A 2 2 0 0 1 2 8 A 2 2 0 0 1 4 6 z M 12 6 A 2 2 0 0 1 14 8 A 2 2 0 0 1 12 10 A 2 2 0 0 1 10 8 A 2 2 0 0 1 12 6 z M 7.4882812 6.6347656 A 0.5 0.5 0 0 1 7.9335938 6.8847656 A 0.5 0.5 0 0 1 7.7519531 7.5664062 A 0.5 0.5 0 0 1 7.0664062 7.3847656 A 0.5 0.5 0 0 1 7.2519531 6.7011719 A 0.5 0.5 0 0 1 7.4882812 6.6347656 z M 8.8535156 7 A 0.5 0.5 0 0 1 9.3007812 7.25 A 0.5 0.5 0 0 1 9.1152344 7.9335938 A 0.5 0.5 0 0 1 8.4335938 7.75 A 0.5 0.5 0 0 1 8.6152344 7.0664062 A 0.5 0.5 0 0 1 8.8535156 7 z M 7.1230469 8 A 0.5 0.5 0 0 1 7.5664062 8.25 A 0.5 0.5 0 0 1 7.3867188 8.9335938 A 0.5 0.5 0 0 1 6.7011719 8.75 A 0.5 0.5 0 0 1 6.8847656 8.0664062 A 0.5 0.5 0 0 1 7.1230469 8 z M 8.4882812 8.3652344 A 0.5 0.5 0 0 1 8.9335938 8.6152344 A 0.5 0.5 0 0 1 8.75 9.2988281 A 0.5 0.5 0 0 1 8.0664062 9.1152344 A 0.5 0.5 0 0 1 8.25 8.4335938 A 0.5 0.5 0 0 1 8.4882812 8.3652344 z M 8 10 A 2 2 0 0 1 10 12 A 2 2 0 0 1 8 14 A 2 2 0 0 1 6 12 A 2 2 0 0 1 8 10 z"/>
</svg>

<svg xmlns="http://www.w3.org/2000/svg" width="16" height="16" version="1"><defs><style id="current-color-scheme" type="text/css"></style></defs><path d="M8 1C4.122 1 1 4.122 1 8s3.122 7 7 7 7-3.122 7-7-3.122-7-7-7zm0 1a2 2 0 0 1 2 2 2 2 0 0 1-2 2 2 2 0 0 1-2-2 2 2 0 0 1 2-2zM4 6a2 2 0 0 1 2 2 2 2 0 0 1-2 2 2 2 0 0 1-2-2 2 2 0 0 1 2-2zm8 0a2 2 0 0 1 2 2 2 2 0 0 1-2 2 2 2 0 0 1-2-2 2 2 0 0 1 2-2zm-4.512.635a.5.5 0 0 1 .446.25.5.5 0 0 1-.182.681.5.5 0 0 1-.686-.181.5.5 0 0 1 .186-.684.5.5 0 0 1 .236-.066zM8.854 7a.5.5 0 0 1 .447.25.5.5 0 0 1-.186.684.5.5 0 0 1-.681-.184.5.5 0 0 1 .181-.684A.5.5 0 0 1 8.854 7zM7.123 8a.5.5 0 0 1 .443.25.5.5 0 0 1-.18.684.5.5 0 0 1-.685-.184.5.5 0 0 1 .184-.684A.5.5 0 0 1 7.123 8zm1.365.365a.5.5 0 0 1 .446.25.5.5 0 0 1-.184.684.5.5 0 0 1-.684-.184.5.5 0 0 1 .184-.681.5.5 0 0 1 .238-.069zM8 10a2 2 0 0 1 2 2 2 2 0 0 1-2 2 2 2 0 0 1-2-2 2 2 0 0 1 2-2z" fill="currentColor" color="#d3dae3"/></svg>
